svg/free/clone.svg

<svg version="1.1" xmlns="http://www.w3.org/2000/svg" width="24" height="24" viewBox="0 0 24 24">
<title>clone</title>
<path d="M22.125 0.75h-14.625c-0.621 0.001-1.124 0.504-1.125 1.125v14.625c0.001 0.621 0.504 1.124 1.125 1.125h14.625c0.621-0.001 1.124-0.504 1.125-1.125v-14.625c-0.001-0.621-0.504-1.124-1.125-1.125h-0zM21.75 16.125h-13.875v-13.875h13.875z"></path>
<path d="M16.125 21.75h-13.875v-13.875h2.625v-1.5h-3c-0.621 0.001-1.124 0.504-1.125 1.125v14.625c0.001 0.621 0.504 1.124 1.125 1.125h14.625c0.621-0.001 1.124-0.504 1.125-1.125v-3h-1.5z"></path>
</svg>

<svg xmlns="http://www.w3.org/2000/svg" width="24" height="24" viewBox="0 0 24 24"><path d="M22.125.75H7.5a1.127 1.127 0 00-1.125 1.125V16.5A1.127 1.127 0 007.5 17.625h14.625A1.127 1.127 0 0023.25 16.5V1.875A1.127 1.127 0 0022.125.75zm-.375 15.375H7.875V2.25H21.75z"/><path d="M16.125 21.75H2.25V7.875h2.625v-1.5h-3A1.127 1.127 0 00.75 7.5v14.625a1.127 1.127 0 001.125 1.125H16.5a1.127 1.127 0 001.125-1.125v-3h-1.5z"/></svg>
